X:061
T:G M TS.061
M:C
L:1/8
Q:1/4=120
S:Thomas Sands’ MS,1810,Lincolnshire
R:march
O:England;Lincolnshire
Z:vmp.Ruairidh Greig, 2011
K:G
d>d|g2g>gg2dc|”dot added”B3AG2dc|B2B2dcBc|d2d>dd2(3def|
g2f2e2d2|B3c edcB|a3gf2e2|d2d>dd2:|
|:z2|d2e2 fdfd|g3d gdgd|agfe dcBA|G2G>GG2d2|
dcBA gfed|d3e/d/c2B2|B3d dcAF|G2G>GG2z:|
|:D>D|”dot added”G3B BAcB|B3d dced|dcBA Geed|d2d/c/B/c/B4|
B2B>BB2c2|d2d>dd2g>g|g2egf2e2|d2d>dd2:|
|:z2|d3e fdfd|g3d gdgd|agfe dcBA|G2G>GG2d2|
dcBA gfed|d2e>dc2B2|B2d2 dcAF|G2G>GG2:|]

